Catalina-light/actions/16/transform-move-vertical.svg

<svg xmlns="http://www.w3.org/2000/svg" width="24" height="24" viewBox="0 0 24 24">
 <defs>
  <style id="current-color-scheme" type="text/css">
   .ColorScheme-Text { color:#5c616c; } .ColorScheme-Highlight { color:#5294e2; }
  </style>
 </defs>
 <path style="fill:currentColor" class="ColorScheme-Text" d="M 13.5 0 A 0.50005 0.50005 0 0 0 13 0.5 L 13 9.4765625 A 0.50005 0.50005 0 0 0 13.5 9.9765625 L 21.492188 9.9765625 A 0.50005 0.50005 0 0 0 21.992188 9.4765625 L 21.992188 0.5 A 0.50005 0.50005 0 0 0 21.492188 0 L 13.5 0 z M 14.501953 0.98632812 L 20.496094 0.98632812 C 20.772224 0.98635812 20.996066 1.2101981 20.996094 1.4863281 L 20.996094 8.484375 C 20.996064 8.760505 20.772224 8.984348 20.496094 8.984375 L 14.501953 8.984375 C 14.225823 8.984345 14.001981 8.760505 14.001953 8.484375 L 14.001953 1.4863281 C 14.001983 1.2101981 14.225823 0.98635512 14.501953 0.98632812 z M 9.5 3.9765625 L 7 6.9765625 L 9 6.9765625 L 9 18.976562 L 10 18.976562 L 10 6.9765625 L 12 6.9765625 L 9.5 3.9765625 z M 13.5 13.976562 A 0.50005 0.50005 0 0 0 13 14.476562 L 13 23.451172 A 0.50005 0.50005 0 0 0 13.5 23.951172 L 21.492188 23.951172 A 0.50005 0.50005 0 0 0 21.992188 23.451172 L 21.992188 14.476562 A 0.50005 0.50005 0 0 0 21.492188 13.976562 L 13.5 13.976562 z M 14.501953 14.962891 L 20.496094 14.962891 C 20.772224 14.962891 20.996064 15.186791 20.996094 15.462891 L 20.996094 22.460938 C 20.996064 22.737037 20.772224 22.960938 20.496094 22.960938 L 14.501953 22.960938 C 14.225823 22.960938 14.001983 22.737037 14.001953 22.460938 L 14.001953 15.462891 C 14.001983 15.186791 14.225823 14.962891 14.501953 14.962891 z"/>
 <path style="fill:currentColor;opacity:0.3" class="ColorScheme-Text" d="M 14 1 L 14 8.9765625 L 20.992188 8.9765625 L 20.992188 1 L 14 1 z M 14 14.976562 L 14 22.951172 L 20.992188 22.951172 L 20.992188 14.976562 L 14 14.976562 z"/>
</svg>

<svg width="24" height="24" viewBox="0 0 24 24" xmlns="http://www.w3.org/2000/svg">
<defs>
<style id="current-color-scheme" type="text/css">.ColorScheme-Text { color:#5c616c; } .ColorScheme-Highlight { color:#5294e2; }</style>
</defs>
<path class="ColorScheme-Text" d="m13.5 0a0.50005 0.50005 0 0 0-0.5 0.5v8.9766a0.50005 0.50005 0 0 0 0.5 0.5h7.9922a0.50005 0.50005 0 0 0 0.5-0.5v-8.9766a0.50005 0.50005 0 0 0-0.5-0.5h-7.9922zm1.002 0.98633h5.9941c0.27613 3e-5 0.49997 0.22387 0.5 0.5v6.998c-3e-5 0.27613-0.22387 0.49997-0.5 0.5h-5.9941c-0.27613-3e-5 -0.49997-0.22387-0.5-0.5v-6.998c3e-5 -0.27613 0.22387-0.49997 0.5-0.5zm-5.002 2.9902-2.5 3h2v12h1v-12h2l-2.5-3zm4 10a0.50005 0.50005 0 0 0-0.5 0.5v8.9746a0.50005 0.50005 0 0 0 0.5 0.5h7.9922a0.50005 0.50005 0 0 0 0.5-0.5v-8.9746a0.50005 0.50005 0 0 0-0.5-0.5h-7.9922zm1.002 0.98633h5.9941c0.27613 0 0.49997 0.2239 0.5 0.5v6.998c-3e-5 0.2761-0.22387 0.5-0.5 0.5h-5.9941c-0.27613 0-0.49997-0.2239-0.5-0.5v-6.998c3e-5 -0.2761 0.22387-0.5 0.5-0.5z" fill="currentColor"/>
<path class="ColorScheme-Text" d="m14 1v7.9766h6.9922v-7.9766h-6.9922zm0 13.977v7.9746h6.9922v-7.9746h-6.9922z" fill="currentColor" opacity=".3"/>
</svg>
